!!!ONB: MCCC : IJH0466_04 : Extracted Monophonic Melody
!!!COM: Haydn, Joseph
!!!OPR: String Quartet in G major
!!!OMV: 4
!!!SCT: Hob.III:81 ; Op.77 No.1
!!!ODT: 1799///
**kern
*thru
*k[f#]
*G:
*clefF
*M2/4
8dd
=1
8cc#
8dd
8a
8b
=2
4.e
16f#
16g
=3
8a
8d
8e
8f#
=4
16g
16f#
16g
16a
8b
8dd
=5
8cc#
8dd
8a
8b
=6
4.e
16f#
16g
=7
8a
8d
8e
8f#
=8
4g
8G
8dd
=9
8cc#
8dd
8a
8b
=10
4.e
16f#
16g
=11
8a
8d
8e
8f#
=12
16g
16f#
16g
16a
8b
8dd
=13
8cc#
8dd
8a
8b
=14
4.e
16f#
16g
=15
8a
8d
8e
8f#
=16
16g
16f#
16g
16a
8g
8b
=17
16g
16f#
16g
16a
8g
8dd
=18
16b
16a
16b
16cc
8b
8gg
=19
16dd
16cc#
16dd
16ee
8dd
8bb
=20
16gg
16ff#
16gg
16aa
8gg
8ddd
=21
8ccc#
8ddd
8aa
8bb
=22
4.ee
16ff#
16gg
=23
8aa
8dd
8ee
8ff#
=24
16gg
16ff#
16gg
16aa
8bb
8ddd
=25
8ccc#
8ddd
8aa
8bb
=26
4.ee
16ff#
16gg
=27
8aa
8dd#
8ee
8ff#
=28
16gg
16ff#
16gg
16aa
8bb
16ee
16ff#
=29
8gg
8cc#
8dd
8ee
=30
16ff#
16ee
16ff#
16gg
8aa
8r
=31
4.r
8dd[
=32
8dd]
8b
8dd#
8ee
=33
4.r
8ee[
=34
8ee]
8cc#
8ee#
8ff#
=35
8r
8aa
8ee#
8ff#
=36
8cc#
8dd
8a#
8b
=37
8r
8bb
8ff#
8gg
=38
8dd#
8ee
8ff#
8gg
=39
8dd#
8ee
8bb
8dd
=40
8cc#
8aa
8gg#
8aa
=41
8ee
8ff
8cc#
8dd
=42
8a
8aa
8gg#
8aa
=43
8ee
8ff
8cc#
8dd
=44
8a
8aa
8gg#
8aa
=45
8ee
8ff
8cc#
8dd
=46
8g#
8a
8e
8f
=47
8c#
8d
8A
8B-
=48
8G#
8A
16e
16f
16e
16f
=49
8c#
8d
8A
8B-
=50
8G#
8A
8B
8c
=51
8A#
8B
8c#
8d
=52
8d#
8e
8f#
8g
=53
8g#
8a
8b
8cc#
=54
8ee
8dd
8gg
8ff#
=55
8bb
8aa
8bb
8aa
=56
8bb
8aa
8ddd
8ccc
=57
8aa#
8bb
8ff#
8gg
=58
4.ee
16ff#
16gg
=59
8aa
8dd
8ee
8ff#
=60
16gg
16ff#
16gg
16aa
8bb
8bb
=61
8aa
8bb
8aa
8gg
=62
16ff#
16ee
16ff#
16gg
8aa
8bb
=63
8aa
8bb
8aa
8gg
=64
16ff#
16gg
16aa
16ff#
16dd
16a
16dd
16ff#
=65
16gg
16ff#
16gg
16ee
16cc#
16a
16gg
16bb
=66
16aa
16gg#
16aa
16ff#
16dd
16a
16dd
16ff#
=67
16gg
16ff#
16gg
16ee
16cc#
16a
16gg
16bb
=68
16aa
16gg#
16aa
16ff#
16dd
16a
16dd
16ff#
=69
16aa
16gg#
16aa
16ff#
16dd
16b
16dd
16ff#
=70
16gg
16ff#
16gg
16dd
16b
16gg
16bb
16aa
=71
16gg
16ff#
16gg
16ee
16cc#
16a
16g
16a
=72
16f#
16dd
16f#
16dd
16e#
16dd
16f#
16dd
=73
16e#
16dd
16f#
16dd
16e#
16dd
16f#
16dd
=74
16e
16dd
16f
16dd
16e
16dd
16f
16dd
=75
16e
16dd
16f
16dd
16e
16dd
16f
16dd
=76
16cc#
16b
16cc#
16a
16gg
16ff#
16gg
16ee
=77
16ccc#
16bb
16ccc#
16aa
16eee
16ddd
16eee
16ccc#
=78
16ddd
16ccc#
16ddd
16ccc#
8ddd
8fff#
=79
16eee
16ddd#
16eee
16ddd#
8eee
8ggg
=80
8fff#
16ggg
16eee
8fff#
16ggg
16eee
=81
8fff#
8ccc#
8ddd
8aa#
=82
8bb
8ff#
8gg
8dd#
=83
8ee
8bb
8gg
8ee
=84
8dd
8aa
8ff#
8dd
=85
8cc#
8gg
8ee
8cc#
=86
4dd
4r
=87
2r
=88
2r
=89
2r
=90
16ff#
16dd
16cc#
16dd
16cc#
16dd
16ee
16dd
=91
16ff#
16dd
16cc#
16dd
16cc#
16dd
16ee
16dd
=92
16cc#
16b
16a#
16b
16cc#
16dd
16ee
16ff#
=93
16gg
16ff#
16ee
16ff#
16gg
16aa
16bb
16ccc#
=94
16ddd
16ccc#
16ddd
16aa
8eee
8eee
=95
8fff#
8fff#
16ggg
16fff#
16ggg
16eee
=96
16ddd
16fff#
16ddd
16fff#
8eee
8eee
=97
8fff#
8fff#
16ggg
16fff#
16ggg
16eee
=98
8fff#
8fff#
16ggg
16fff#
16ggg
16eee
=99
4ddd
4fff#
=100
4d
4r
=101
4d
8r
8aa
=102
8gg#
8aa
8ee
8ff#
=103
4.b
16cc#
16dd
=104
8ee
8a
8b
8cc#
=105
16dd
16cc#
16dd
16ee
8ff#
8aa
=106
8gg#
8aa
8ee
8ff#
=107
4.b
16cc#
16dd
=108
8ee
8a
8b
8cc#
=109
4dd
8d
8aa
=110
8gg#
8aa
8ee
8ff#
=111
8cc#
8dd
4r
=112
4.r
8bb
=113
8aa#
8bb
8ff#
8gg
=114
8dd#
8ee
4r
=115
4.r
8eee
=116
8ddd#
8eee
8r
8eee
=117
8ddd#
8eee
8r
8eee
=118
8ddd#
8eee
8bb
8ccc
=119
4.ff#
16gg
16aa
=120
8bb
8ee
8ff#
8gg
=121
16aa
16gg
16aa
16bb
8aa
8gg
=122
16ff#
16ee
16ff#
16gg
8ff#
8ee
=123
4.dd#
8ee
=124
4.f#
8g
=125
16a
16g
16a
16b
8a
8g
=126
4.f#
8g#
=127
16a
16b
16a
16g#
8a
8b
=128
16cc
16dd
16cc
16b
8cc
8dd#
=129
8ee
16dd#
16ee
8ff#
16ee
16ff#
=130
16gg
16b
16a
16b
16cc
16b
16a
16b
=131
16gg
16cc
16b
16cc
16dd
16cc
16b
16cc
=132
16ccc
16ff#
16ee
16ff#
16gg
16ff#
16ee
16ff#
=133
16gg
16b
16a
16b
16cc
16b
16a
16b
=134
16bb
16ee
16dd#
16ee
16ff#
16ee
16dd#
16ee
=135
16ee
16a
16g#
16a
16b
16a
16g#
16a
=136
16aa
16a
16g#
16a
16g#
16a
16b
16a
=137
16g
16ee
16bb
16bb
16bb
16bb
16bb
16bb
=138
16g
16ee
16bb
16bb
16f#
16dd#
16aa
16aa
=139
16g
16b
16gg
16gg
16gg
16gg
16gg
16gg
=140
16e
16b
16gg
16gg
16a
16cc
16ff#
16a
=141
16g
16b
16ee
16ee
16ee
16ee
16ee
16ee
=142
16g#
16b
16ee
16ee
16ee
16ee
16ee
16ee
=143
16a
16cc
16ee
16ee
16ee
16ee
16ee
16ee
=144
16a#
16cc#
16ee
16ff#
16gg
16ff#
16gg
16ee
=145
16a
16dd#
16ff#
16bb
16ddd#
16bb
16ff#
16dd#
=146
16a
16dd#
16ff#
16bb
16ddd#
16bb
16fff#
16ddd#
=147
8eee
8eee
8fff#
8fff#
=148
4ggg
4ggg#
=149
8aaa
8aaa
8bbb
8bbb
=150
4cccc
4A#
=151
8B
16ee
16gg
8.bb
16ee
=152
2ff#
=153
8ee
8bb
8aa#
8bb
=154
8ff#
8gg
4r
=155
8r
8gg
8ff#
8gg
=156
8dd#
8ee
4r
=157
8r
8ee
8ff
8ee
=158
8ccc
8aa
4r
=159
8r
8ee
8ff
8ee
=160
8ccc
8aa
4r
=161
8r
8aa
8bb
8aa
=162
8ddd
8aa
8bb
8aa
=163
8ddd
8ccc
8bb
8gg
=164
8ff#
8gg
8dd
8ee
=165
8dd#
8ee
8b
8cc
=166
8b
8cc
8g
8g#
=167
8a
8g#
8a
8b
=168
8cc
8dd
8ee
8g
=169
8f#
8g
8a
8dd
=170
8cc#
8dd
8e
8cc
=171
8b
8cc
8d
8b
=172
8c
8a
8B
8g
=173
8e#
8f#
8d
8a
=174
8g#
8a
8d
8cc
=175
8b
8cc
8f#
8ee
=176
8dd#
8ee
8a
8cc
=177
8b
8cc
8d
8ee
=178
8dd#
8ee
8a
8cc
=179
8b
8cc
8d
8cc
=180
8b
8cc
8d
8cc
=181
8b
8cc
8d
8dd
=182
8cc#
8dd
8a
8b
=183
4.e
16f#
16g
=184
8a
8d
8e
8f#
=185
16g
16f#
16g
16a
8b
8dd
=186
8cc#
8dd
8a
8b
=187
4.e
16f#
16g
=188
8a
8d
8e
8f#
=189
16g
16f#
16g
16a
8g
8b
=190
16g
16f#
16g
16a
8g
8dd
=191
16b
16a
16b
16cc
8b
8gg
=192
16dd
16cc#
16dd
16ee
8dd
8bb
=193
16gg
16ff#
16gg
16aa
8gg
8ddd
=194
8ccc#
8ddd
8aa
8bb
=195
4.ee
16ff#
16gg
=196
4aa
8.dd
32ee
32ff
=197
8.gg
16cc
8ccc
8ccc
=198
4ccc
4bb[
=199
4bb]
4aa[
=200
4aa]
4gg[
=201
16gg]
16ff#
16ee
16dd
16cc#
16b
16a
16g
=202
8f#
8g
8f#
8g
=203
8f#
16aa
16gg
16ff#
16ee
16dd
16cc
=204
8b
8cc
8b
8cc
=205
8b
16ddd
16ccc
16bb
16aa
16gg
16ff
=206
8ee
16eee
16ddd
16ccc
16bb
16aa
16gg
=207
8ff#
16ee
16dd
16cc
16b
16a
16g
=208
4f#
8r
8r
=209
4.r
8g[
=210
8g]
8e
8g#
8a
=211
4.r
8a[
=212
8a]
8f#
8a#
8b
=213
8r
8dd
8a#
8b
=214
8f#
8g
8d#
8e
=215
8r
8ee
8b
8cc
=216
8g#
8a
8b
8cc
=217
8g#
8a
8ee
8g
=218
8f#
8dd
8cc#
8dd
=219
8a
8b-
8f#
8g
=220
8d
8ddd
8ccc#
8ddd
=221
8aa
8bb-
8ff#
8gg
=222
8dd
8ddd
8ccc#
8ddd
=223
8aa
8bb-
8ff#
8gg
=224
8cc#
8dd
8a
8b-
=225
8f#
8g
8d
8e-
=226
8c#
8d
16a
16b-
16a
16b-
=227
8f#
8g
8d
8e-
=228
8c#
8d
8e
8f
=229
8d#
8e
8f#
8g
=230
8g#
8a
8b
8cc
=231
8cc#
8dd
8ee
8ff#
=232
8aa
8gg
8ccc
8bb
=233
8eee
8ddd
8eee
8ddd
=234
8eee
8ddd
8ggg
8fff
=235
8ddd#
8eee
8bb
8ccc
=236
4.aa
16bb
16ccc
=237
8ddd
8gg
8aa
8bb
=238
16ccc
16bb
16ccc
16ddd
8eee
8eee
=239
8ddd
8eee
8ddd
8ccc
=240
16bb
16aa
16bb
16ccc
8ddd
8eee
=241
8ddd
8eee
8ddd
8ccc
=242
16bb
16ddd
16ggg
16ddd
16ggg
16ddd
16bb
16gg
=243
16aa
16ddd
16aa
16ddd
16ccc
16ddd
16ccc
16ddd
=244
16bb
16ddd
16ggg
16ddd
16ggg
16ddd
16bb
16gg
=245
16aa
16ddd
16aa
16ddd
16ccc
16ddd
16ccc
16ddd
=246
16bb
16ddd
16ggg
16ddd
16ggg
16ddd
16bb
16gg
=247
16bb
16ddd
16fff
16ddd
16fff
16ddd
16fff
16ddd
=248
8eee
8ggg
8eee
8ccc
=249
8aa
8eee
8ccc
8aa
=250
8gg
8dd
8b
8g
=251
8f#
8d
8c
8A
=252
4G
8r
8dd
=253
8ee
8dd
8r
8dd
=254
8ee
8dd
8r
8dd
=255
8ee
8dd
8ee
8dd
=256
8ee
8dd
8ee
8dd
=257
8ee
8dd
8ee
8dd
=258
8ee
8dd
8cc
8b
=259
8a
8g
4ee
=260
8dd
8cc
8b
8a
=261
8g
8dd
8ee
8dd
=262
8G
8gg
8aa
8gg
=263
8G
8bb
8ccc
8bb
=264
8G
8ddd
8eee
8ddd
=265
8r
8dd
8ee
8dd
=266
4r
8ee
8dd
=267
4r
8e
8d
=268
4r
8ee
8dd
=269
4r
8ee
8dd
=270
8ee
8dd
8ee
8dd
=271
8ee
8dd
8ee
8dd
=272
8ee
8dd
8cc
8b
=273
8a
8g
4ee
=274
8dd
8cc
8b
8a
=275
16g
16a
16g
16f#
8g
8b
=276
16dd
16ee
16dd
16cc#
8dd
8ff#
=277
16gg
16aa
16gg
16ff#
8gg
8bb
=278
16ddd
16eee
16ddd
16ccc#
8ddd
8fff#
=279
16ggg
16aaa
16ggg
16fff#
8ggg
8fff#
=280
16ggg
16aaa
16ggg
16fff#
16ggg
16aaa
16ggg
16fff#
=281
16ggg
16aaa
16ggg
16fff#
16ggg
16aaa
16ggg
16fff#
=282
4ggg
4bbb
=283
4G
4r
==
*-
